icons/fill-new-food-patato-strip.svg

<svg xmlns="http://www.w3.org/2000/svg" width="32px" height="32px" viewBox="0 0 32 32" version="1.1">
    <title>fill-new-food-patato-strip</title>
    <g id="fill-new-food-patato-strip" stroke-width="1" fill-rule="evenodd">
        <path d="M26.1993896,23 L25.3215535,27.3922323 C25.1345839,28.3270807 24.3137542,29 23.3603922,29 L9.08705624,29 C8.15756379,29 7.35058203,28.3596373 7.13937382,27.4544592 L6.09938957,23 L26.1993896,23 Z M11.2792408,14 C11.7096712,14 12.09181,14.2754301 12.2279241,14.6837722 L12.7720759,16.3162278 C12.90819,16.7245699 13.2903288,17 13.7207592,17 L18.2792408,17 C18.7096712,17 19.09181,16.7245699 19.2279241,16.3162278 L19.7720759,14.6837722 C19.90819,14.2754301 20.2903288,14 20.7207592,14 L25.5603922,14 C25.6920962,14 25.8234781,14.0130094 25.9526245,14.0388386 C27.035744,14.2554625 27.7381774,15.3091128 27.5215535,16.3922323 L26.5993896,21 L5.63238957,21 L4.57270715,16.4544592 C4.54953143,16.3551347 4.53400441,16.254256 4.52622815,16.1527096 L4.52038957,16 C4.52038957,14.8954305 5.41582007,14 6.52038957,14 L11.2792408,14 Z M14,7 C14.5522847,7 15,7.44771525 15,8 L14.9994637,14.9867747 C14.6376435,14.9273427 14.3318082,14.6722545 14.2131449,14.3160802 L13.6693735,12.6839198 C13.5333049,12.2755022 13.1511287,12 12.720641,12 L11.9995815,12 L12,8 C12,7.44771525 12.4477153,7 13,7 L14,7 Z M19,3 C19.5522847,3 20,3.44771525 20,4 L19.9995815,12 L19.279131,12 C18.887879,12 18.5365221,12.2275729 18.3735763,12.5756906 L18.3304934,12.6836352 L17.7859881,14.3163648 C17.6673581,14.6720837 17.3620222,14.9269079 17.000725,14.9866163 L17,4 C17,3.44771525 17.4477153,3 18,3 L19,3 Z M24,5 C24.5522847,5 25,5.44771525 25,6 L24.9995815,12 L21.9995815,12 L22,6 C22,5.44771525 22.4477153,5 23,5 L24,5 Z M9,5 C9.55228475,5 10,5.44771525 10,6 L9.99958146,12 L6.99958146,12 L7,6 C7,5.44771525 7.44771525,5 8,5 L9,5 Z" id="&#24418;&#29366;" />
    </g>
</svg>

<svg xmlns="http://www.w3.org/2000/svg" viewBox="0 0 32 32"><path fill="currentColor" d="m26.2 23-.878 4.392A2 2 0 0 1 23.36 29H9.087a2 2 0 0 1-1.948-1.546L6.1 23zm-14.92-9a1 1 0 0 1 .948.684l.544 1.632a1 1 0 0 0 .949.684h4.558a1 1 0 0 0 .949-.684l.544-1.632a1 1 0 0 1 .949-.684h4.84a2 2 0 0 1 1.96 2.392L26.6 21H5.632l-1.06-4.546a2 2 0 0 1-.046-.301L4.52 16a2 2 0 0 1 2-2zM14 7a1 1 0 0 1 1 1v6.987a1 1 0 0 1-.787-.67l-.544-1.633a1 1 0 0 0-.948-.684H12V8a1 1 0 0 1 1-1zm5-4a1 1 0 0 1 1 1v8h-.72a1 1 0 0 0-.906.576l-.044.108-.544 1.632a1 1 0 0 1-.785.67L17 4a1 1 0 0 1 1-1zm5 2a1 1 0 0 1 1 1v6h-3V6a1 1 0 0 1 1-1zM9 5a1 1 0 0 1 1 1v6H7V6a1 1 0 0 1 1-1z"/></svg>
